epam-assets/icon-sources/18/content-edit_redo-alternative.svg

<svg width="18" height="18" viewBox="0 0 18 18" fill="none" xmlns="http://www.w3.org/2000/svg">
<g id="18/content-edit_redo-alternative">
<path id="icon" d="M7.425 14.25C6.2125 14.25 5.172 13.8562 4.3035 13.0687C3.4345 12.2812 3 11.3 3 10.125C3 8.95 3.4345 7.96875 4.3035 7.18125C5.172 6.39375 6.2125 6 7.425 6H12.15L10.2 4.05L11.25 3L15 6.75L11.25 10.5L10.2 9.45L12.15 7.5H7.425C6.6375 7.5 5.95325 7.75 5.37225 8.25C4.79075 8.75 4.5 9.375 4.5 10.125C4.5 10.875 4.79075 11.5 5.37225 12C5.95325 12.5 6.6375 12.75 7.425 12.75H12.75V14.25H7.425Z" fill="#6C6F80"/>
</g>
</svg>

<svg xmlns="http://www.w3.org/2000/svg" width="18" height="18" fill="none" viewBox="0 0 18 18">
  <path fill="#6C6F80" d="M7.425 14.25c-1.212 0-2.253-.394-3.122-1.181C3.434 12.28 3 11.3 3 10.125s.434-2.156 1.303-2.944C5.172 6.394 6.213 6 7.425 6h4.725L10.2 4.05 11.25 3 15 6.75l-3.75 3.75-1.05-1.05 1.95-1.95H7.425c-.787 0-1.472.25-2.053.75S4.5 9.375 4.5 10.125 4.79 11.5 5.372 12c.581.5 1.266.75 2.053.75h5.325v1.5H7.425Z"/>
</svg>
